X:1
T:Over There
T:Over There
T:By George M. Cohan
T:Copyright 1917 by Wm. Jerome Pub. Corp.
T:Copyright 1917 by Wm. Jerome Pub. Corp.
T:Copyright 1917 by Wm. Jerome Pub. Corp.
T:Copyright 1917 by Wm. Jerome Pub. Corp.
C:By George M. Cohan
Z:Copyright 1917 by Wm. Jerome Pub. Corp.
%%score 1 { ( 2 4 ) | 3 }
L:1/8
Q:1/4=120
M:2/4
K:Bb
V:1 treble nm="Voice"
V:2 treble nm="Piano"
V:4 treble 
V:3 bass 
V:1
"^Moderato Allegro." z4 | z4 | z4 | z4 | z4 | z4 | z4 | z4 || B c d B | G2 G F | G2 G F | G4 | %12
w: ||||||||John- nie get your|gun, get your|gun, get your|gun|
w: ||||||||John- nie get your|gun, get your|gun, get your|gun|
 c d e c | G2 G ^F | G2 G ^F | G4 | ^G2 A2 | d2 c2 | A2 B2 | d4 | c2 A2 | c2 d2 | A2 G2 | c4 | %24
w: Take it on the|run, on the|run, on the|run|Hear them|call- ing|you and|me|Ev'- ry|son of|lib- er-|ty|
w: John- ny show the|Hun you're a|son of a|gun|Hoist the|flag and|let her|fly|Yan- kee|Dood- le|do or|die|
 B c d B | G2 G F | G2 G F | G4 | c d e c | G2 G ^F | G2 G ^F | G4 | !>!^G2 !>!A2 | d2 c2 | A2 B2 | %35
w: Hur- ry right a-|way no de-|lay go to-|day|Make your dad- dy|glad to have|had such a|lad|Tell your|sweet- heart|not to|
w: Pack your lit- tle|kit show our|grit do your|bit|Yan- kees to the|ranks from the|towns and the|tanks|Make your|moth- er|proud of|
 d2 A B | !>!c2 !>!c2 | !>!c2 !>!c2 | c4- | c z ||"^Refrain.""_-" d F |: B4- | B z d F | B4- | %44
w: pine To be|proud her|boy's in|line.|_|O- ver|there|_ o- ver|there|
w: you And the|old Red|White and|Blue.|_|||||
 B z d F | !>!B2 d F | !>!B2 d F | B4- | B z c d | !>!e2 !>!d2 | c !>!f2 e | !>!d2 !>!c2 | %52
w: _ Send the|word, send the|word o- ver|there|_ That the|Yanks are|com- ing the|Yanks are|
w: ||||||||
 B !>!d2 B | !>!A2 c2 | B A B G | c4- | c z d F | B4- | B z d F | B4- | B z d F | B2 d F | B2 d F | %63
w: com- ing The|drums rum-|tum- ming ev'- ry-|where|_ So pre-|pare|_ say a|pray'r|_ Send the|word, send the|word to be-|
w: |||||||||||
 B4- | B z d c | B4 | F d c B | c4 | F2 G A | !>!B2 !>!B2 | !>!B2 B B | B A G A |1 B2 d F :|2 %73
w: ware|_ We'll be|o-|ver we're com- ing|o-|ver And we|won't come|back till it's|o- ver o- ver|there. O- ver|
w: ||||||||||
 B3 z |] %74
w: there.|
w: |
V:2
!f! !>![DFB]4 | [DF][DFd][DFc][DFB] | !>![EFc]4 | [EF]2 [EG][CEA] | !>![B,DB]2 !>![B,DB]2 | %5
 [B,EB]2 [B,=EB][B,B] | [CFB]A[CEG][CEA] | [DFB] z !>![Bdb] z || [DFB]c [DFd]B | [B,DG]2 [B,DG]F | %10
 [B,DG]2 [B,DG]F | [B,DG]4 | [EGc]d [EGe]c | [EG]2 [EG]^F | [EG]2 [EG]^F | [EG]4 | %16
 [=B,D^G]2 [CEA]2 | [FAd]2 [EAc]2 | A2 B2 | [DFd]4 | [CGc]2 [CFA]2 | [CGc]2 [D^Fd]2 | %22
 [=B,FA]2 [_B,EG]2 | [_EGc]4 | [DFB]c [DFd]B | [B,DG]2 [B,DG]F | [B,DG]2 [B,DG]F | [B,DG]4 | %28
 [EGc]d [EGe]c | [EG]2 [EG]^F | [EG]2 [EG]^F | [EG]4 | [=B,D^G]2 [CEA]2 | [FAd]2 [EAc]2 | A2 B2 | %35
 [DFd]2 AB | [=EBc]2 [EBc]2 | [_EBc]2 [EBc]2 | c4- | c z ||!mf!!f! [Dd]F |: B4- | B z dF | B4- | %44
 B z dF | !>![DFB]2 [DFd][DF] | !>![DFB]2 [DFd][DF] | [DFB]4- | [DFB] z [EAc][FBd] | %49
 !>![EBe]2 !>![DBd]2 | ([EAc] !>![Fcf]2) [FAf] | !>![FBd]2 !>![EAc]2 | [DGB] [DGd]2 [FGB] | %53
 !>![FA]2 [^DAc]2 | [DGB]A [=EB]G | c4- | c z [Dd]F | B4- | B z dF | B4- | B z dF | %61
 [DFB]2 [DFd][DF] | [DFB]2 [DFd][DF] | [DFB]4- | [DFB] z [EAd]c | [DFB]4 | [DF][DFd][DFc][DFB] | %67
 !>![EFc]4 | [EF]2 [EG][CEA] | !>![B,DB]2 !>![B,DB]2 | !>![B,EB]2 [B,=EB][B,B] | %71
 [CFB]A[CEG][CEA] |1 [DFB] z [Dd]F :|2 [DFB] z !>![Bdb] z |] %74
V:3
 (B,,F,) (F,,F,) | [B,,B,]2 [F,,F,]2 | A,,F, F,,F, | !>![A,,A,]2 [G,,G,][F,,F,] | %4
 !>![B,,B,]2 !>![_A,,_A,]2 | !>![G,,G,]2 [_G,,_G,]2 | !>![F,,F,]2 [G,,G,][F,,F,] | %7
 [B,,B,] z !>![B,,,B,,] z || !>!B,,F, F,,F, | B,,F, F,,F, | B,,F, F,,F, | (!>!B,,F,E,D,) | %12
 !>!C,G, G,,G, | C,G, G,,G, | C,G, G,,G, | C,E,D,C, | [F,,F,]2 [F,,F,]2 | z [F,,F,][G,,G,][A,,A,] | %18
 !>![B,,B,]2 [F,,F,]2 | (!>![B,,B,]A,G,F,) | !>!=E,2 F,2 | !>![_E,G,]2 [D,A,]2 | [G,,G,]2 C,2 | %23
 !>![F,,F,]._E,.D,.C, | B,,F, F,,F, | B,,F, F,,F, | B,,F, F,,F, | !>!B,,F,E,D, | C,G, G,,G, | %29
 C,G, G,,G, | C,G, G,,G, | C,E,D,C, | !>![F,,F,]2 !>![F,,F,]2 | z [F,,F,][G,,G,][A,,A,] | %34
 [B,,B,]2 [F,,F,]2 | !>![B,,B,]A,G,F, | !>![G,,G,]2 [G,,G,]2 | [_G,,_G,]2 [G,,G,]2 | %38
 !>![F,,F,] [G,,G,]2 [^G,,^G,] | [A,,A,] z || z2 |: !>![B,,B,]2 !>![A,,A,]2 | %42
 (!>![G,,G,]2 [F,,F,]) z | !>![B,,B,]2 [A,,A,]2 | [G,,G,]2 [F,,F,] z | B,,F, F,,F, | B,,F, F,,F, | %47
 !>![B,,B,]F,G,A, | [B,,B,] z [A,,A,][_A,,_A,] | !>![G,,G,]2 [_G,,_G,]2 | %50
 [F,,F,] !>![A,,A,]2 [C,C] | [B,,B,]2 [^F,,^F,]2 | [G,,G,] !>![B,,B,]2 [_D,_D] | %53
 !>![C,C]2 [^F,,^F,]2 | [G,,G,]2 [C,C] z | !>![F,,F,] [G,,G,]2 [^G,,^G,] | [A,,A,] z z2 | %57
 !>![B,,B,]2 !>![A,,A,]2 | (!>![G,,G,]2 [F,,F,]) z | !>![B,,B,]2 !>![A,,A,]2 | %60
 !>![G,,G,]2 [F,,F,] z | !>!B,,F, F,,F, | B,,F, F,,F, | [B,,B,]F,G,A, | [B,,B,] z [F,,F,]2 | %65
 (!>!B,,F,) (F,,F,) | [B,,B,]2 [F,,F,]2 | A,,F, F,,F, | !>![A,,A,]2 [G,,G,][F,,F,] | %69
 !>![B,,B,]2 !>![_A,,_A,]2 | !>![G,,G,]2 [_G,,_G,]2 | !>![F,,F,]2 [G,,G,][F,,F,] |1 %72
 [B,,B,] z z2 :|2 [B,,B,] z !>![B,,,B,,] z |] %74
V:4
 x4 | x4 | x4 | x4 | x4 | x4 | x4 | x4 || x4 | x4 | x4 | x4 | x4 | x4 | x4 | x4 | x4 | x4 | %18
 A[DF] B[DF] | x4 | x4 | x4 | x4 | x4 | x4 | x4 | x4 | x4 | x4 | x4 | x4 | x4 | x4 | x4 | %34
 A[DF] B[DF] | x4 | x4 | x4 | [EA] [EG]2 [E_G] | [EF] x || x2 |: z [DF]z[DF] | z [DF]zD | %43
 z [DF]z[DF] | z [DF]zD | x4 | x4 | x4 | x4 | x4 | x4 | x4 | x4 | x4 | x4 | [EA] [EG]2 [E_G] | %56
 [EF] x3 | z [DF]z[DF] | z [DF]zD | z [DF]z[DF] | z [DF]zD | x4 | x4 | x4 | x4 | x4 | x4 | x4 | %68
 x4 | x4 | x4 | x4 |1 x4 :|2 x4 |] %74

